packages/kaspersky-hexa-ui-icons/src/iconsSVGs/16/SharedNetworkService.svg

<svg width="16" height="16" viewBox="0 0 16 16" fill="none" xmlns="http://www.w3.org/2000/svg">
<g clip-path="url(#clip0_32302_23)">
<path fill-rule="evenodd" clip-rule="evenodd" d="M7.99975 0.68335C6.90439 0.68335 6.01642 1.57132 6.01642 2.66668C6.01642 3.53439 6.57364 4.27195 7.34976 4.54105V5.43032C6.40844 5.66769 5.66743 6.4087 5.43006 7.35002H4.5408C4.2717 6.5739 3.53414 6.01669 2.66644 6.01669C1.57107 6.01669 0.683105 6.90466 0.683105 8.00003C0.683105 9.09539 1.57107 9.98336 2.66644 9.98336C3.53414 9.98336 4.2717 9.42614 4.54081 8.65002H5.43006C5.66743 9.59134 6.40844 10.3324 7.34976 10.5697V11.459C6.57364 11.7281 6.01642 12.4656 6.01642 13.3334C6.01642 14.4287 6.90439 15.3167 7.99975 15.3167C9.09512 15.3167 9.98309 14.4287 9.98309 13.3334C9.98309 12.4657 9.42588 11.7281 8.64976 11.459V10.5697C9.59108 10.3324 10.3321 9.59134 10.5695 8.65002H11.4587C11.7278 9.42614 12.4654 9.98336 13.3331 9.98336C14.4285 9.98336 15.3164 9.09539 15.3164 8.00003C15.3164 6.90466 14.4285 6.01669 13.3331 6.01669C12.4654 6.01669 11.7278 6.5739 11.4587 7.35002H10.5695C10.3321 6.4087 9.59108 5.66769 8.64976 5.43032V4.54105C9.42588 4.27194 9.98309 3.53438 9.98309 2.66668C9.98309 1.57132 9.09512 0.68335 7.99975 0.68335ZM7.31642 2.66668C7.31642 2.28929 7.62236 1.98335 7.99975 1.98335C8.37715 1.98335 8.68309 2.28929 8.68309 2.66668C8.68309 3.04408 8.37715 3.35002 7.99975 3.35002C7.62236 3.35002 7.31642 3.04408 7.31642 2.66668ZM6.64976 8.00002C6.64976 7.25444 7.25418 6.65002 7.99976 6.65002C8.74535 6.65002 9.34976 7.25444 9.34976 8.00002C9.34976 8.74561 8.74535 9.35002 7.99976 9.35002C7.25418 9.35002 6.64976 8.74561 6.64976 8.00002ZM1.98311 8.00003C1.98311 7.62263 2.28904 7.31669 2.66644 7.31669C3.04383 7.31669 3.34977 7.62263 3.34977 8.00003C3.34977 8.37742 3.04383 8.68336 2.66644 8.68336C2.28904 8.68336 1.98311 8.37742 1.98311 8.00003ZM13.3331 7.31669C12.9557 7.31669 12.6498 7.62263 12.6498 8.00003C12.6498 8.37742 12.9557 8.68336 13.3331 8.68336C13.7105 8.68336 14.0164 8.37742 14.0164 8.00003C14.0164 7.62263 13.7105 7.31669 13.3331 7.31669ZM7.99975 12.65C7.62236 12.65 7.31642 12.956 7.31642 13.3334C7.31642 13.7107 7.62236 14.0167 7.99975 14.0167C8.37715 14.0167 8.68309 13.7107 8.68309 13.3334C8.68309 12.956 8.37715 12.65 7.99975 12.65Z" fill="black"/>
</g>
<defs>
<clipPath id="clip0_32302_23">
<rect width="16" height="16" fill="white"/>
</clipPath>
</defs>
</svg>

<svg xmlns="http://www.w3.org/2000/svg" width="16" height="16" fill="none" viewBox="0 0 16 16"><path fill="#000" fill-rule="evenodd" d="M8 .6834c-1.0954 0-1.9833.888-1.9833 1.9833 0 .8677.5572 1.6053 1.3333 1.8744v.8892c-.9413.2374-1.6823.9784-1.9197 1.9197h-.8892c-.2692-.7761-1.0067-1.3333-1.8744-1.3333C1.5713 6.0167.6834 6.9047.6834 8s.888 1.9834 1.9833 1.9834c.8677 0 1.6053-.5573 1.8744-1.3334h.8892c.2374.9413.9784 1.6824 1.9197 1.9197v.8893c-.7761.2691-1.3333 1.0066-1.3333 1.8744 0 1.0953.888 1.9833 1.9833 1.9833s1.9833-.888 1.9833-1.9833c0-.8677-.5572-1.6053-1.3333-1.8744v-.8893c.9413-.2373 1.6823-.9784 1.9197-1.9197h.8893c.2691.7761 1.0066 1.3334 1.8743 1.3334 1.0954 0 1.9834-.888 1.9834-1.9834 0-1.0953-.888-1.9833-1.9834-1.9833-.8677 0-1.6052.5572-1.8743 1.3333h-.8893c-.2374-.9413-.9784-1.6823-1.9197-1.9197v-.8892c.7761-.2692 1.3333-1.0067 1.3333-1.8744C9.9833 1.5713 9.0953.6834 8 .6834m-.6833 1.9833a.6833.6833 0 1 1 1.3666 0 .6833.6833 0 0 1-1.3666 0M6.65 8c0-.7456.6044-1.35 1.35-1.35S9.35 7.2544 9.35 8 8.7456 9.35 8 9.35 6.65 8.7456 6.65 8M1.9833 8A.6833.6833 0 1 1 3.35 8a.6833.6833 0 0 1-1.3667 0m11.35-.6833a.6833.6833 0 0 0 0 1.3667.6834.6834 0 1 0 0-1.3667M8 12.65a.6834.6834 0 1 0 .0001 1.3668A.6834.6834 0 0 0 8 12.65"/></svg>
